icon_installer/data/icons/scalable/actions/show-bell-large-none-symbolic.svg

<?xml version="1.0" encoding="UTF-8"?>
<svg height="16px" viewBox="0 0 16 16" width="16px" xmlns="http://www.w3.org/2000/svg">
    <path d="m 8 0 c -0.828125 0 -1.5 0.671875 -1.5 1.5 c 0 0.078125 0.007812 0.15625 0.019531 0.234375 c -0.871093 0.269531 -1.652343 0.773437 -2.257812 1.453125 l -2.730469 -2.730469 l -1.0625 1.0625 l 2.957031 2.957031 l 8.527344 8.523438 l 2.515625 2.519531 l 1.0625 -1.0625 l -1.570312 -1.570312 c 0.320312 -0.167969 0.539062 -0.5 0.539062 -0.886719 c 0 -0.554688 -0.445312 -1 -1 -1 h -0.5 v -4.5 c 0 -2.191406 -1.425781 -4.125 -3.519531 -4.773438 c 0.011719 -0.074218 0.019531 -0.152343 0.019531 -0.226562 c 0 -0.828125 -0.671875 -1.5 -1.5 -1.5 z m -4.988281 6.183594 c -0.007813 0.105468 -0.011719 0.210937 -0.011719 0.316406 v 4.5 h -0.5 c -0.554688 0 -1 0.445312 -1 1 s 0.445312 1 1 1 h 7.328125 z m 2.988281 7.816406 c 0 0.714844 0.382812 1.375 1 1.730469 c 0.617188 0.359375 1.382812 0.359375 2 0 c 0.617188 -0.355469 1 -1.015625 1 -1.730469 z m 0 0" fill="#222222"/>
</svg>

<svg xmlns="http://www.w3.org/2000/svg" width="16" height="16"><path fill="#222" d="M8 0a1.5 1.5 0 0 0-1.48 1.734 5.01 5.01 0 0 0-2.258 1.454L1.532.457.468 1.52l2.957 2.957L11.953 13l2.516 2.52 1.062-1.063-1.57-1.57A1 1 0 0 0 13.5 11H13V6.5a4.995 4.995 0 0 0-3.52-4.773A1.46 1.46 0 0 0 9.5 1.5 1.5 1.5 0 0 0 8 0zM3.012 6.184C3.004 6.289 3 6.394 3 6.5V11h-.5c-.555 0-1 .445-1 1s.445 1 1 1h7.328zM6 14c0 .715.383 1.375 1 1.73a1.99 1.99 0 0 0 2 0c.617-.355 1-1.015 1-1.73zm0 0"/></svg>
